X:1
T:There’s a Promise from the Lord
T:There’s a Promise from the Lord
T:William Howard Doane
T:Frances Jane (Fanny) Crosby, 1895
T:Public Domain Courtesy of the Cyber Hymnal™
T:Public Domain Courtesy of the Cyber Hymnal™
C:William Howard Doane
Z:Public Domain
Z:Courtesy of the Cyber Hymnal™
%%score ( 1 2 ) ( 3 4 )
L:1/8
Q:1/4=100
M:4/4
K:G
V:1 treble 
V:2 treble 
V:3 bass 
V:4 bass 
V:1
 DD | [DG][DG] [DG]>[DG] [DG]2 [GB]>[FA] | [DG]4 [B,D]2 [B,D][B,D] | %3
w: 1.~There’s a|prom- ise from the Lord, Hal- le-|lu- jah, ’Tis re-|
w: 2.~Oh, my|heart is full of song, Hal- le-|lu- jah, I am|
w: 3.~Oh, His|won- drous grace to me, Hal- le-|lu- jah, Shall my|
w: 4.~To the|pal- ace gates on high, Hal- le-|lu- jah, He will|
 [CE][CE][CE][CE] [CE]2 [^CA]>[EG] | [DF]4 D2 DD | [DG][DG] [DG]>[DA] [GB]2 [Gd]>[Gd] | %6
w: cord- ed in His Word, Hal- le-|lu- ah, That the|faith- ful He’ll re- ward, Hal- le-|
w: sing- ing all day long, Hal- le-|lu- jah, In my|weak- ness I am strong, Hal- le-|
w: theme for ev- er be, Hal- le-|lu- jah, With His|blood He made me free, Hal- le-|
w: guide me with His eye, Hal- le-|lu- jah, I shall|see Him by and by, Hal- le-|
 [Fd]4 [FA]2 [Ac][Ac] | [GB][GB][Gc][EA] [DG]2 [DF][DA] | [DG]6 ||"^Refrain" [Gd]>[Ge] | %10
w: lu- ah, And that|prom- ise I be- lieve, Praise His|name.||
w: lu- jah, For my|strength is in the Lord, Praise His|name.||
w: lu- jah, I am|hap- py in His love, Praise His|name.||
w: lu- jah, And in|glo- ry at His feet Praise His|name.||
 [Gd]4 [GB]2 [GB]>[Gc] | [GB]4 [DG]2 [DF][DG] | [FA][FA] [FA]>[FA] [FA]2 [Fd]>[Fd] | %13
w: |||
w: |||
w: |||
w: |||
 [Gd]4 [GB]2 [Gd]>[Ge] | [Gd]4 [GB]2 [GB]>[Gc] | [GB]4 G2 [Ac][Ac] | %16
w: |||
w: |||
w: |||
w: |||
 [GB][GB][Gc][EA] [DG]2 [DF][DA] | [DG]6 |] %18
w: ||
w: ||
w: ||
w: ||
V:2
 DD | x8 | x8 | x8 | x4 D2 DD | x8 | x8 | x8 | x6 || x2 | x8 | x8 | x8 | x8 | x8 | x4 G2 x2 | x8 | %17
 x6 |] %18
V:3
 D,D, | [G,B,][G,B,] [G,B,]>[G,B,] [G,B,]2 [D,D]>[D,C] | [G,,G,B,]4 [G,,G,]2 [G,,G,][G,,G,] | %3
w: ~ ~|~ ~ ~ ~ ~ ~ ~|~ ~ ~ ~|
 [C,G,][C,G,][C,G,][C,G,] [C,G,]2 [A,,G,]>[^C,A,] | [D,A,]4 [D,F,]2 D,D, | %5
w: ~ ~ ~ ~ ~ ~ ~|~ ~ ~ ~|
 [G,B,][G,B,] [G,B,]>[G,C] [G,D]2 [G,B,]>[G,B,] | [D,A,]4 [D,D]2 [F,D][F,D] | %7
w: ~ ~ ~ ~ ~ ~ ~|~ ~ ~ ~|
 [G,D][G,D][C,E][C,C] [D,B,]2 [D,A,][D,C] | [G,,B,]6 || [G,B,]>[G,C] | [G,B,]4 [G,D]2 [G,D]>[G,E] | %11
w: ~ ~ ~ ~ ~ ~ ~|~|Hal- le-|lu- jah, hal- le-|
 [G,D]4 [G,B,]2 [A,C][G,B,] | [D,D][D,D] [D,D]>[D,D] [D,D]2 [D,C]>[D,C] | %13
w: lu- jah, I am|trust- ing in the Lord, hal- le-|
 [G,B,]4 [G,D]2 [G,B,]>[G,C] | [G,B,]4 [G,D]2 [G,D]>[G,E] | [G,D]4 [G,B,]2 [F,D][F,D] | %16
w: lu- jah; Hal- le-|lu- jah, hal- le-|lu- jah, I am|
 [G,D][G,D][C,E][C,C] [D,B,]2 [D,A,][D,C] | [G,,B,]6 |] %18
w: trust- ing in the Lord, Praise His|name.|
V:4
 D,D, | x8 | x8 | x8 | x6 D,D, | x8 | x8 | x8 | x6 || x2 | x8 | x8 | x8 | x8 | x8 | x8 | x8 | x6 |] %18

